X:1
T:Hungarian Dance No. 1
T:Hungarian Dance No. 1
T:G Minor
T:J. Brahms
C:J. Brahms
%%score { ( 1 4 5 ) | ( 2 3 ) }
L:1/8
Q:1/4=140
M:2/4
K:Bb
V:1 treble nm="Piano" snm="Pno."
V:4 treble 
V:5 treble 
V:2 bass 
V:3 bass 
V:1
"^Allegro""^espress."!>(!!<(! ([B,D]3 [A,C])!>)! |!>(! ([B,D]3 [A,C])!<)!!>)! | %2
!>(!!>(! ([^F,A,CE]3 D)!>)! |!>(! ([^F,A,]3 B,)!>)!!>)! | G,!>(! z!p!"_legg." .g'.[bd']!>)! | %5
!<(! .g.[Bd].G!<)!.[B,D] |"^espress."!<(! ([B,D]3 [A,C]) | ([B,D]3 [B,E])!<)! |!>(! ([A,CEG]3 F) | %9
[K:bass] ([F,G,=B,D]3 E)!>)! |[K:treble] C z!p!"^legg."!<(! .c''.[c'e']!<)! | %11
!>(! .c'.[eg].c.[EG]!>)! |[K:bass]"^espress."!>(! ([^F,A,CE]3 D)!>)! |!>(! ([^F,A,CE]3 D)!>)! | %14
 ([G,A,D]3 C) | ([E,G,A,]3 B,) | !>![^F,A,]4[K:treble] |!p! .a.[d^f].A.[D^F] | %18
[K:bass]!>(! ([G,A,E]3 D)!>)! |!>(! ([G,A,E]3 D)!>)! |!>(! ([^F,D]3 A,)!>)! | %21
!>(!{/A,} ([^F,C]3 B,)!>)! | G, z[K:treble]!p!!<(! .g'.[bd']!<)! |!>(! .g.[Bd].G.[B,D]!>)! | %24
!mf!!<(! z ([Bd]2 [Ac]) | z ([Bd]2 [Ac])!<)! |!>(! z (e2 d) | z ((A2 B))!>)! | %28
 !>!G,4!8va(! x2!8va)! |!>(! .g'.[bd'].g.[Bd]!>)! |!<(! z ([Bd]2 [Ac]) | z B3!<)! |!>(! z [ce]3 | %33
 z [F=B]3!>)! | !>!C4!<(! x2!<)! | .c'.[eg].c.[EG] | z [Ac]3 | z [Ac]3 | z [GA]3 | z [EG]3 | %40
 !>!A,4!>(! x2!>)! | .a.[d^f].A.[D^F] | z [Ac]3 | z [Ac]3 | z ([^FAd]2 A) | z!>(! ([Ac]2 B)!>)! | %46
 !>!G,4!8va(!!<(! x2!<)! | x4!8va)! ||!p! ([gb]/"_leggiero"[dc']/[gb]/) z/ ([^fa]/[cb]/[fa]/) z/ | %49
 ([dg]/[Ba]/[dg]/) z/ ([d=f]/[=Bg]/[df]/) z/ | ([ce]/[Gf]/[ce]/) z/ ([=Bd]/[Fe]/[Bd]/) z/ | %51
{/e} .[F=Bd]!>(! !>![Ec]2 .[Ec]!>)! |!p! ([fa]/[cb]/[fa]/) z/ ([eg]/[ca]/[eg]/) z/ | %53
 ([d^f]/[Ag]/[df]/) z/ ([ce]/[G=f]/[ce]/) z/ | ([Bd]/[^Fe]/[Bd]/) z/ ([Ac]/[Fd]/[Ac]/) z/ | %55
{/d} [^FAc]!>(! !>![GB]2 .[GB]!>)! |!f!{/B} !>!b/a/g/^f/ !>!g/=f/e/d/ | !>!e/d/c/B/ !>!c/B/A/G/ | %58
 ^F/G/A/B/ c/d/=e/^f/ |{/a} .[dg]([d^f]/a/) [dg]2 || %60
!8va(! [g'b']/b/[g'b']/b/!<(! [^f'a']/a/[f'a']/a/ | [e'g']/g/[e'g']/g/!8va)! [d'=f']/f/[d'f']/f/ | %62
 [c'e']/e/[c'e']/e/ [=bd']/d/[bd']/d/!<)! |{/[f=bd']} .d !>![cgc']2 .[cgc'] | %64
!p!!8va(! [f'a']/a/[f'a']/a/ [e'g']/g/[e'g']/g/!8va)! | %65
!>(! [d'^f']/^f/[d'f']/f/ [c'e']/e/[c'e']/e/ | [bd']/d/[bd']/d/ [ac']/c/[ac']/c/!>)! | %67
{/[^fc']} .c !>![Bgb]2 .[Bgb] | b'/g'/d'/a/ g'/d'/b/^f/ | (6:4:6d'/b/g/^c/b/g/ (6:4:6d/A/g/d/B/G/ | %70
 ^F/A/c/^e/ a/c'/^f'/a'/ | .[gd'g'] ([ad'^f']/a'/ .[gd'g']) z |: x7/2 x/ | [Bgb]3 a/b/ | %74
 c'/b/a/g/ ^f/d/=e/f/ |{/a} .[dg]([Ad^f]/a/) !>![Gdg]2 | [Aa]/^c/=e/g/ [bb']/a'/g'/f'/ | %77
 =e'/d'/^c'/b/ (6:4:6a/g/f/=e/d/^c/ | d/f/a/d'/ [=e^c']/a/=b/c'/ | %79
{/=e'} .[dad']([=ea^c']/=e'/) .[dad'] z ::!f! ([ff']/_e'/c'/a/f/4e/4c/4A/4 !>!F-) | %81
!>(! F{ef} .[Ace]!>)! (e/g/f/e/) |!p! z (.P[Bd].[A^c].[Bd]) | z (.P[db].[^ca].[db]) | %84
!f! ([gg']/e'/b/g/e/B/ !>!G-) |!>(! G (.P[GB].[^FA].[GB])!>)! |!p! z (.P[Bd]!>(!.[A^c].[Bd]) | %87
 z (.P[dgb].[^c^fa]).!fermata![dgb]!>)! |!f! [A^f][Bg]/ z/ [ca][Bg]/ z/ | %89
 [A^f][Ge]/ z/ [^Fd][Ac]/ z/ | !arpeggio![GB]/d/g/b/ a/g/^f/a/ | .[dg]([d^f]/a/) .[dg] z :| %92
!p! ([B,D]3!<(! [A,C]) | ([B,D]3 [A,C])!<)! |!>(! ([^F,A,CE]3 D) | ([^F,A,]3 B,)!>)! | %96
 G,!p! .[Dd].[Gg].[Bb] | .[dd'].[gg']!8va(!.[bd''].[g'g'']!8va)! | ([B,D]3!<(! [A,C]) | %99
 ([B,D]3 [B,E])!<)! | ([A,CEG]3!>(! F) |[K:bass] ([F,G,=B,D]3 E)!>)! | %102
[K:treble]!p!"^legg." (!>!C.G).c.[Ee] | .[Gg].[cc'].[ee'].[c'c''] | %104
[K:bass]"^espress."!>(! ([^F,A,CE]3 D)!>)! |!>(! ([^F,A,CE]3 D)!>)! | ([G,A,D]3 C) | %107
 ([E,G,A,]3 B,) |[K:treble] (!>!A,!p!.A).[Dd].[^F^f] | [Aa][dd'][^f^f']!8va(![d'd'']!8va)! | %110
[K:bass]!>(! ([G,A,E]3 D)!>)! |!>(! ([G,A,E]3 D)!>)! |!>(! ([^F,D]3 A,)!>)! | %113
!>(!{/A,} ([^F,C]3 B,)!>)! | G,[K:treble] .[Dd]!p!.[Gg].[Bb] | %115
 .[dd'].[gg']!8va(! .[bb'].[g'g'']!8va)! |!mf!!<(! z ([Bd]2 [Ac]) | z ([Bd]2 [Ac])!<)! | %118
!>(! z (e2 d) | z ((A2 B))!>)! | !>!G,4!8va(! x2!8va)! |!>(! .g'.[bd'].g.[Bd]!>)! | %122
!<(! z ([Bd]2 [Ac]) | z B3!<)! |!>(! z [ce]3 | z [F=B]3!>)! | !>!C4!<(! x2!<)! | .c'.[eg].c.[EG] | %128
 z [Ac]3 | z [Ac]3 | z [GA]3 | z [EG]3 | !>!A,4!>(! x2!>)! | .a.[d^f].A.[D^F] | z [Ac]3 | z [Ac]3 | %136
 z ([^FAd]2 A) | z!>(! ([Ac]2 B)!>)! | !>!G,4!<(!!8va(! x2!<)! | x4!8va)! | %140
!p! ([gb]/"_leggiero"[dc']/[gb]/) z/ ([^fa]/[cb]/[fa]/) z/ | %141
 ([dg]/[Ba]/[dg]/) z/ ([d=f]/[=Bg]/[df]/) z/ | ([ce]/[Gf]/[ce]/) z/ ([=Bd]/[Fe]/[Bd]/) z/ | %143
{/e} .[F=Bd]!>(! !>![Ec]2 .[Ec]!>)! |!p! ([fa]/[cb]/[fa]/) z/ ([eg]/[ca]/[eg]/) z/ | %145
 ([d^f]/[Ag]/[df]/) z/ ([ce]/[G=f]/[ce]/) z/ | ([Bd]/[^Fe]/[Bd]/) z/ ([Ac]/[Fd]/[Ac]/) z/ | %147
{/d} [^FAc]!>(! !>![GB]2 .[GB]!>)! |!f!{/B} !>!b/a/g/^f/ !>!g/=f/e/d/ | !>!e/d/c/B/ !>!c/B/A/G/ | %150
 ^F/G/A/B/ c/d/=e/^f/ |{/a} .[dg]([d^f]/a/) [dg]2 || %152
!p!"_legg."!8va(! [g'b']/c''/[g'b']/b/ [^f'a']/b'/[f'a']/a/!8va)! | %153
!<(! [e'g']/a'/[e'g']/g/ [d'f']/g'/[d'f']/f/ | [c'e']/f'/[c'e']/e/!<)! [bd']/e'/[bd']/d/ | %155
{/[f=bd']} d [cgc']2 [cgc'] | [fa]/b/[fa]/A/ [eg]/a/[eg]/G/ | %157
 [d'^f']/g'/[d'f']/^f/ [c'=e']/f'/[c'e']/e/ | [bd']/e'/[bd']/d/ [ac']/d'/[ac']/c/ | %159
{/[^fc']} .c !>![Bgb]2 .[Bgb] |!f! [bb']/a'/g'/^f'/ g'/=f'/e'/d'/ | [ee']/d'/c'/b/ [cc']/b/a/g/ | %162
 [Aa]/g/f/e/ [Ff]/e/d/c/ | [Dd]/c/B/A/ [B,B]/A/G/^F/ | %164
 (6:4:6([G,G]/E/B,/!<(!G,/B,/E/ (6:4:6G/B/e/g/b/e'/)!<)! |!f! .[gae'g'] z!f! .[^faf'^a'] z | %166
!f! .!fermata![gbd'g']4 |] %167
V:2
!mf! G,,, (D,2 C,) | G,,, (D,2 C,) | G,,, (E,2 D,) | G,,, (C,2 D,) | %4
!ped! G,,, ([B,,D,G,]2 [B,,-D,G,] | [B,,D,G,] [B,,D,G,]2 [B,,D,G,]) |!mf! G,,, (D,2 C,) | %7
 G,,, (D,2 E,) | [F,,,F,,] (G,2 F,) | G,,, (D,2 E,) | [C,,,C,,] C,3- | C,4 | %12
!mf! [D,,,D,,] (E,2 D,) | [D,,,D,,] (E,2 D,) | [E,,,E,,] (D,2 C,) | [C,,,C,,] ((A,,2 B,,)) | %16
!ped! [D,,,D,,]!<(! ([D,^F,A,]2!<)! [D,F,A,]-) |!>(! [D,F,A,] [D,^F,A,]2 [D,F,A,]!>)! | %18
 C,,, (E,2 D,) | C,,, (E,2 D,) | D,,, (D,2 A,,) | D,,, (C,2 B,,) | G,,, ([B,,D,G,]2 [B,,D,G,]- | %23
 [B,,D,G,] [B,,D,G,]2 [B,,D,G,]) | [G,,,G,,] ([D,B,]2 [C,A,]) | [G,,,G,,] ([D,B,]2 [C,A,]) | %26
 [G,,,G,,] [^F,C]2 [F,C] | [G,,,G,,] [^F,C]2 [F,C] | G,,, x G,,4- |!>(! G,,3!>)! x | %30
 [G,,,G,,] ([D,B,]2 [C,A,]) | [G,,,G,,] [D,B,]2 [E,B,] | [F,,,F,,] C2 C | [G,,,G,,] =B,2 B, | %34
 [C,,,C,,] x2!<(! ([E,G,C]2 [E,G,C]-!<)! |!>(! [E,G,C] [E,G,C]2!ped-up! [E,G,C])!>)! | %36
 [D,,,D,,] ^F,2 F, | [D,,,D,,] ^F,2 F, | [E,,,E,,] G,2 G, | [C,,,C,,] C2 C | %40
 [D,,,D,,]!<(! ([D,^F,A,]2 x2 [D,F,A,]-!<)! |!>(! [D,F,A,] [D,^F,A,]2 [D,F,A,])!>)! | %42
 [C,,,C,,] A,2 A, | [C,,,C,,] A,2 A, | [D,,,D,,] C2 C | [D,,,D,,] ^F,2 F, | %46
!ped! G,,, x2!ped-up!!<(! ([B,,D,G,]2 [B,,D,G,]-!<)! |!>(! [B,,D,G,] [B,,D,G,]2 [B,,D,G,])!>)! || %48
 .G,, [D,D]2 [D,D] | .G,, [D,D]2 [D,D] | .G,, [G,G]2 [G,G] | .C,, !>![G,CG]2 .[G,CG] | %52
 [A,,,A,,][K:treble] [CFA]2 [CFA] |[K:bass] [C,,C,] [A,D^F]2 [G,CE] | D,, [D,^F,D]2 [D,A,C] | %55
 .[G,,,G,,] !>![D,G,D]2 .[D,G,D] | .G,,.[B,D] .B,,.[B,D] | .D,.[B,D] .G,.[B,D] | %58
 D,, [D,A,C]2 [D,A,C] | .[G,B,].[D,A,D] .[G,B,D]2 ||!p!"_legg."!ped!"_col" ([G,,G,]2 [A,,A,]2 | %61
 [B,,B,]2 [=B,,=B,]2 | [C,C]2 [F,F]2) | .[C,,C,] !>![E,E]2 .[E,E] | ([A,,A,]2 [C,C]2 | %65
 [E,E]2 [G,G]2 | [^F,^F]2 [A,A]2) | .[G,,,G,,][K:treble] !>![DGd]2 .[DGd] | %68
[K:bass]!f! .[G,,,G,,].[G,B,D] .[B,,,B,,].[G,B,D] | .[D,,D,].[G,B,D] .[G,,G,].[G,B,D] | %70
 .[D,,D,] !>![D,A,C]2 .[D,A,C] | .[G,B,].[D,A,D] .[G,B,D] z |:!f! [D,,,D,,][D,^F,A,D][D,F,A,D] x | %73
 z [D,G,B,D][D,G,B,D] z | (!>![D,,A,,D,]2 .[D,D]).[C,C]/ z/ | .[B,,B,].[D,,D,] .[G,,G,].[B,,,B,,] | %76
{A,,,A,,} G/=E/^C/G,/ E/C/B,/=E,/ | ^C/B,/G,/^C,/ G,/=E,/C,/G,,/ | F,/D,/A,,/F,,/ A,/=E,/^C,/A,,/ | %79
 .[D,F,A,D].[A,,A,] .[D,F,A,D]2 :: .[F,,,F,,].[F,A,C].[F,A,C] x | (F,,/A,,/C,/F,/ A,/C/F) | %82
 .[B,,,B,,].[F,B,D] .[D,,D,].[F,B,D] | .[F,,F,].[F,B,D] .[B,,B,].[F,B,D] | %84
 .[E,,,E,,].[G,B,E].[G,B,E] x | (E,,/G,,/B,,/E,/ G,/B,/E) | %86
 .[D,D].[G,B,D]"^rit. -    -   -   -    -" .[B,,B,].[G,B,D] | %87
 .[G,,G,].[G,B,D] .[B,,,B,,].!fermata![G,B,D] | .[D,,,D,,].[D,A,C].[D,A,C] x | %89
 z .[D,A,C].[D,A,C] z | .G,,.[G,B,D] .D,.[A,D] | .[G,B,D].[D,A,D] .[G,B,D] z :| %92
!>(! G,,,"^legg." (D,2 C,)!>)! |!>(! G,,, (D,2 C,)!>)! |!>(! G,,, (E,2 D,)!>)! | %95
!>(! G,,, (C,2 D,)!>)! | G,,,!<(! ([B,,D,G,]2 [B,,D,G,]-!<)! | %97
!>(! [B,,D,G,] [B,,D,G,]2 [B,,D,G,])!>)! | G,,, (D,2 C,) | G,,, (D,2 E,) | [F,,,F,,] (G,2 F,) | %101
 G,,, (D,2 E,) | [C,,,C,,]!<(! C,3-!<)! |!>(! C,4!>)! | [D,,,D,,] (E,2 D,) | [D,,,D,,] (E,2 D,) | %106
 [E,,,E,,] (D,2 C,) | [C,,,C,,] (A,,2 B,,) | [D,,,D,,]!<(! ([D,^F,A,]2 [D,F,A,]-!<)! | %109
!>(! [D,F,A,] [D,^F,A,]2!>)! [D,F,A,]) | C,,, (E,2 D,) | C,,, (E,2 D,) | D,,, (D,2 A,,) | %113
 D,,, (C,2 B,,) | G,,,!<(! ([B,,D,G,]2 [B,,D,G,]-!<)! |!>(! [B,,D,G,] [B,,D,G,]2!>)! [B,,D,G,]) | %116
 [G,,,G,,] ([D,B,]2 [C,A,]) | [G,,,G,,] ([D,B,]2 [C,A,]) | [G,,,G,,] [^F,C]2 [F,C] | %119
 [G,,,G,,] [^F,C]2 [F,C] | G,,, x G,,4- |!>(! G,,3!>)! x | [G,,,G,,] ([D,B,]2 [C,A,]) | %123
 [G,,,G,,] [D,B,]2 [E,B,] | [F,,,F,,] C2 C | [G,,,G,,] =B,2 B, | %126
 [C,,,C,,] x2!<(! ([E,G,C]2 [E,G,C]-!<)! |!>(! [E,G,C] [E,G,C]2!ped-up! [E,G,C])!>)! | %128
 [D,,,D,,] ^F,2 F, | [D,,,D,,] ^F,2 F, | [E,,,E,,] G,2 G, | [C,,,C,,] C2 C | %132
 [D,,,D,,]!<(! ([D,^F,A,]2 x2 [D,F,A,]-!<)! |!>(! [D,F,A,] [D,^F,A,]2 [D,F,A,])!>)! | %134
 [C,,,C,,] A,2 A, | [C,,,C,,] A,2 A, | [D,,,D,,] C2 C | [D,,,D,,] ^F,2 F, | %138
!ped! G,,, x2!ped-up!!<(! ([B,,D,G,]2 [B,,D,G,]-!<)! |!>(! [B,,D,G,] [B,,D,G,]2 [B,,D,G,])!>)! | %140
 .G,, [D,D]2 [D,D] | .G,, [D,D]2 [D,D] | .G,, [G,G]2 [G,G] | .C,, !>![G,CG]2 .[G,CG] | %144
 [A,,,A,,][K:treble] [CFA]2 [CFA] |[K:bass] [C,,C,] [A,D^F]2 [G,CE] | .D,, [D,^F,D]2 [D,A,C] | %147
 .[G,,,G,,] !>![D,G,D]2 .[D,G,D] | .[G,G].[B,B] .[E,E].[G,G] | .[C,C].[E,E] .[A,,A,].[C,C] | %150
 .[D,,D,] !>![D,A,C]2 .[D,A,C] | .[G,B,].[D,A,D] .[G,B,D]2 ||"_col" [G,,G,]2 [A,,A,]2 | %153
 [B,,B,]2 [=B,,=B,]2 | [C,C]2 [F,F]2 | .[C,,C,] !>![C,E]2 .[C,E] | [A,,A,]2 [C,C]2 | %157
 [E,E]2 [G,G]2 | [^F,^F]2 [A,A]2 | [G,,,G,,] [F,,B,,F,]2 [F,,B,,F,] | %160
 [B,,,B,,][D,,D,] [G,,,G,,][B,,,B,,] | .[C,C].[E,E] .[A,,A,].[C,C] | %162
 .[F,,F,].[A,,A,] .[D,,D,].[F,,F,] | .[B,,,B,,].[D,,D,] .[G,,,G,,].[B,,,B,,] | %164
 ([E,,,E,,]3 [D,,,D,,]) | .[C,,,C,,] z .[D,,,D,,] z | !fermata![G,,,B,,,D,,G,,]4 |] %167
V:3
 x D,G,,C, | x D,G,,C, | x E,G,,D, | x C,G,,D, | x G,,3- | G,,4 | x D,G,,C, | x D,G,,E, | %8
 x G,C,F, | x D,G,,E, | x ([E,G,C]2 [E,G,C]- | [E,G,C] [E,G,C]2 [E,G,C]) | x E,^F,,D, | %13
 x E,^F,,D, | x D,E,,C, | x A,,C,,B,, | x A,,3- | A,,4 | x E,C,,D, | x E,C,,D, | x D,D,,A,, | %21
 x C,D,,B,, | x G,,3- | G,,4 | x (B,,G,,A,,) | x (B,,G,,A,,) | x (E,C,D,) | x (D,C,D,) | %28
 x2 ([B,,D,G,]2 x!<(! [B,,D,G,]-!<)! | [B,,D,G,] [B,,D,G,]2 [B,,D,G,]) | x (B,,G,,A,,) | %31
 x (B,,G,,B,,) | x (A,E,A,) | x (F,=B,,F,) | x3 C,3- | C,4 | x (C,^F,,C,) | x (C,^F,,C,) | %38
 x (E,G,,E,) | x (E,C,E,) | x A,,3- x2 | A,,4 | x (G,C,G,) | x (G,C,G,) | x (^F,D,F,) | %45
 x (C,^F,,C,) | x3 G,,3- | G,,4 || x4 | x4 | x4 | x4 | x[K:treble] x3 |[K:bass] x4 | x4 | x4 | x4 | %57
 x4 | x4 | x4 || z G,,, z2 | z G,, z2 | z G,, z2 | x4 | z A,,, z2 | z C,, z2 | z D,, z2 | %67
 x[K:treble] x3 |[K:bass] x4 | x4 | x4 | x4 |: x2 z x | x3 x | x7/2 x/ | x4 | x4 | x4 | x4 | x4 :: %80
 x2 z .x | x4 | x4 | x4 | x2 z .x | x4 | x4 | x4 | x2 z .x | x3 .x | x4 | x4 :| x D,G,,C, | %93
 x D,G,,C, | x E,G,,D, | x C,G,,D, | x G,,3- | G,,4 | x D,G,,C, | x D,G,,E, | x E,A,,F, | %101
 x D,G,,E, | x ([E,G,C]2 [E,G,C]- | [E,G,C] [E,G,C]2 [E,G,C]) | x E,^F,,D, | x E,^F,,D, | %106
 x D,E,,C, | x A,,C,,B,, | x A,,3- | A,,4 | x E,C,,D, | x E,C,,D, | x D,D,,A,, | x C,D,,B,, | %114
 x G,,3- | G,,4 | x (B,,G,,A,,) | x (B,,G,,A,,) | x (E,C,D,) | x (D,C,D,) | %120
 x2 ([B,,D,G,]2 x!<(! [B,,D,G,]-!<)! | [B,,D,G,] [B,,D,G,]2 [B,,D,G,]) | x (B,,G,,A,,) | %123
 x (B,,G,,B,,) | x (A,E,A,) | x (F,=B,,F,) | x3 C,3- | C,4 | x (C,^F,,C,) | x (C,^F,,C,) | %130
 x (E,G,,E,) | x (E,C,E,) | x A,,3- x2 | A,,4 | x (G,C,G,) | x (G,C,G,) | x (^F,D,F,) | %137
 x (C,^F,,C,) | x3 G,,3- | G,,4 | x4 | x4 | x4 | x4 | x[K:treble] x3 |[K:bass] x4 | x4 | x4 | x4 | %149
 x4 | x4 | x4 || z G,,, z2 | z G,, z2 | z G,, z2 | x4 | z A,,, z2 | z C,, z2 | z D,, z2 | x4 | x4 | %161
 x4 | x4 | x4 | x4 | x4 | x4 |] %167
V:4
 x4 | x4 | x4 | x4 | !>!G,4 | x4 | x4 | x4 | x4 |[K:bass] x4 |[K:treble] !>!C4 | x4 |[K:bass] x4 | %13
 x4 | x4 | x4 | [^F,A,] z[K:treble]!p! .a'.[d'^f'] | x4 |[K:bass] x4 | x4 | x4 | x4 | %22
 !>!G,4[K:treble] | x4 | (D3 C) | (D3 C) | (E3 D) | (A,3 B,) | %28
 G,/B,/D/G/!<(!d/g/b/d'/!8va(!g'/b'/d''/g''/!8va)!!<)! | x4 | (D3 C) | (D3 E) | ([GA]3 F) | %33
 (D3 E) | (C/E/G/c/c/e/g/c'/c'/e'/g'/c''/) | x4 | (E3 D) | (E3 D) | (D3 C) | (A,3 B,) | %40
 A,/D/^F/A/A/d/^f/a/a/d'/^f'/a'/ | x4 | (E3 D) | (E3 D) | D3 A, | C3 B, | %46
 G,/B,/D/G/d/g/b/d'/!8va(!g'/b'/d''/g''/ | .g'!8va)!.[bd'].g.[Bd] || x4 | x4 | x4 | x4 | x4 | x4 | %54
 x4 | x4 | x4 | x4 | x4 | x4 ||!8va(! x4 | x2!8va)! x2 | x4 | x4 |!8va(! x4!8va)! | x4 | x4 | x4 | %68
 x4 | x4 | x4 | x4 |: (!>![D^FAd]2 .[d^fad']).[cc']/ z/ | x4 | x4 | x4 | x4 | x4 | x4 | x4 :: x4 | %81
 x2 c2 | x4 | x4 | x4 | x4 | x4 | x4 | x3/2 x/ x3/2 x/ | x3/2 x/ x3/2 x/ | x4 | x4 :| x4 | x4 | %94
 x4 | x4 | !>!G,4 | x2!8va(! x2!8va)! | x4 | x4 | x4 |[K:bass] x4 |[K:treble] C2 x2 | x4 | %104
[K:bass] x4 | x4 | x4 | x4 |[K:treble] A,2 x2 | x3!8va(! x!8va)! |[K:bass] x4 | x4 | x4 | x4 | %114
 G,4[K:treble] | x2!8va(! x2!8va)! | (D3 C) | (D3 C) | (E3 D) | (A,3 B,) | %120
 G,/B,/D/G/!<(!d/g/b/d'/!8va(!g'/b'/d''/g''/!8va)!!<)! | x4 | (D3 C) | (D3 E) | ([GA]3 F) | %125
 (D3 E) | (C/E/G/c/c/e/g/c'/c'/e'/g'/c''/) | x4 | (E3 D) | (E3 D) | (D3 C) | (A,3 B,) | %132
 A,/D/^F/A/A/d/^f/a/a/d'/^f'/a'/ | x4 | (E3 D) | (E3 D) | D3 A, | C3 B, | %138
 G,/B,/D/G/d/g/b/d'/!8va(!g'/b'/d''/g''/ | .g'!8va)!.[bd'].g.[Bd] | x4 | x4 | x4 | x4 | x4 | x4 | %146
 x4 | x4 | x4 | x4 | x4 | x4 ||!8va(! x4!8va)! | x4 | x4 | x4 | x4 | x4 | x4 | x4 | x4 | x4 | x4 | %163
 x4 | x4 | x4 | x4 |] %167
V:5
 x4 | x4 | x4 | x4 | x4 | x4 | x4 | x4 | x4 |[K:bass] x4 |[K:treble] x4 | x4 |[K:bass] x4 | x4 | %14
 x4 | x4 | x2[K:treble] x2 | x4 |[K:bass] x4 | x4 | x4 | x4 | x2[K:treble] x2 | x4 | x4 | x4 | %26
 x [Ac]3 | z [D^F]3 | x4!8va(! x2!8va)! | x4 | x4 | x (d2 e) | x (g2 f) | x (d2 e) | x6 | x4 | %36
 x (e2 d) | x (e2 d) | x (d2 c) | x (A2 B) | x6 | x4 | z (e2 d) | z (e2 d) | x4 | x4 | %46
 x4!8va(! x2 | x!8va)! x3 || x4 | x4 | x4 | x4 | x4 | x4 | x4 | x4 | x4 | x4 | x4 | x4 || %60
!8va(! x4 | x2!8va)! x2 | x4 | x4 |!8va(! x4!8va)! | x4 | x4 | x4 | x4 | x4 | x4 | x4 |: x4 | x4 | %74
 x4 | x4 | x4 | x4 | x4 | x4 :: x4 | x4 | x4 | x4 | x4 | x4 | x4 | x4 | x4 | x4 | x4 | x4 :| x4 | %93
 x4 | x4 | x4 | x4 | x2!8va(! x2!8va)! | x4 | x4 | x4 |[K:bass] x4 |[K:treble] x4 | x4 | %104
[K:bass] x4 | x4 | x4 | x4 |[K:treble] x4 | x3!8va(! x!8va)! |[K:bass] x4 | x4 | x4 | x4 | %114
 x[K:treble] x3 | x2!8va(! x2!8va)! | x4 | x4 | x [Ac]3 | z [D^F]3 | x4!8va(! x2!8va)! | x4 | x4 | %123
 x (d2 e) | x (g2 f) | x (d2 e) | x6 | x4 | x (e2 d) | x (e2 d) | x (d2 c) | x (A2 B) | x6 | x4 | %134
 z (e2 d) | z (e2 d) | x4 | x4 | x4!8va(! x2 | x!8va)! x3 | x4 | x4 | x4 | x4 | x4 | x4 | x4 | x4 | %148
 x4 | x4 | x4 | x4 ||!8va(! x4!8va)! | x4 | x4 | x4 | x4 | x4 | x4 | x4 | x4 | x4 | x4 | x4 | x4 | %165
 x4 | x4 |] %167

